Sources/FrostedUI/Resources/Icons.xcassets/sad20.imageset/sad-20.svg

<svg width="20" height="20" viewBox="0 0 20 20" fill="none" xmlns="http://www.w3.org/2000/svg" data-fui-icon="true">
  <g clip-path="url(#clip0_882_977)">
    <path
      d="M10 0C15.4193 0 20 4.58071 20 10C20 15.4193 15.4193 20 10 20C4.58071 20 0 15.4193 0 10C0 4.58071 4.58071 0 10 0ZM10 1.5C5.40913 1.5 1.5 5.40913 1.5 10C1.5 14.5909 5.40913 18.5 10 18.5C14.5909 18.5 18.5 14.5909 18.5 10C18.5 5.40913 14.5909 1.5 10 1.5ZM10 12.25C11.456 12.25 12.4837 12.8017 13.1445 13.3682C13.4709 13.6479 13.7055 13.9282 13.8604 14.1426C13.938 14.2501 13.9964 14.3427 14.0371 14.4111C14.0573 14.4451 14.0732 14.4735 14.085 14.4951C14.0908 14.5058 14.0958 14.5151 14.0996 14.5225L14.1074 14.5381C14.1076 14.5384 14.1083 14.5395 13.6211 14.7832L14.1084 14.54C14.2933 14.9104 14.1428 15.3607 13.7725 15.5459C13.4021 15.7308 12.9518 15.5803 12.7666 15.21V15.2109L12.7676 15.2129C12.7645 15.2072 12.7582 15.1947 12.748 15.1777C12.7277 15.1436 12.6928 15.0896 12.6436 15.0215C12.5445 14.8843 12.3884 14.6958 12.168 14.5068C11.7351 14.1358 11.0439 13.75 10 13.75C8.9561 13.75 8.26494 14.1358 7.83203 14.5068C7.6116 14.6958 7.45551 14.8843 7.35645 15.0215C7.30724 15.0896 7.27226 15.1436 7.25195 15.1777C7.24183 15.1947 7.23553 15.2072 7.23242 15.2129V15.21C7.04725 15.5803 6.59795 15.7308 6.22754 15.5459C5.85719 15.3607 5.70666 14.9104 5.8916 14.54L6.37891 14.7832C5.9048 14.5461 5.89178 14.5396 5.8916 14.5391L5.89258 14.5381L5.90039 14.5225C5.90423 14.5151 5.9092 14.5058 5.91504 14.4951C5.92683 14.4735 5.94266 14.4451 5.96289 14.4111C6.00362 14.3427 6.06199 14.2501 6.13965 14.1426C6.29447 13.9282 6.52912 13.6479 6.85547 13.3682C7.51632 12.8017 8.54403 12.25 10 12.25ZM6 8.25C6.55228 8.25 7 8.69771 7 9.25C7 9.80229 6.55228 10.25 6 10.25C5.44772 10.25 5 9.80229 5 9.25C5 8.69771 5.44772 8.25 6 8.25ZM14 8.25C14.5523 8.25 15 8.69771 15 9.25C15 9.80229 14.5523 10.25 14 10.25C13.4477 10.25 13 9.80229 13 9.25C13 8.69771 13.4477 8.25 14 8.25Z"
      fill="currentColor"
    />
  </g>
  <defs>
    <clipPath id="clip0_882_977"><path fill="currentColor" d="M0 0H20V20H0z" /></clipPath>
  </defs>
</svg>

<svg xmlns="http://www.w3.org/2000/svg" width="20" height="20" fill="none" data-fui-icon="true" viewBox="0 0 20 20"><g clip-path="url(#a)"><path fill="currentColor" d="M10 0c5.42 0 10 4.58 10 10s-4.58 10-10 10S0 15.42 0 10 4.58 0 10 0m0 1.5c-4.59 0-8.5 3.91-8.5 8.5s3.91 8.5 8.5 8.5 8.5-3.91 8.5-8.5-3.91-8.5-8.5-8.5m0 10.75c1.456 0 2.484.552 3.145 1.118.326.28.56.56.715.775a4 4 0 0 1 .24.38l.007.015s.001.002-.486.245l.487-.243a.75.75 0 0 1-1.341.67v.003q-.004-.01-.019-.035a2.995 2.995 0 0 0-.58-.67c-.433-.372-1.124-.758-2.168-.758s-1.735.386-2.168.757a3 3 0 0 0-.58.67l-.02.036v-.003a.75.75 0 1 1-1.34-.67l.487.243-.487-.244.008-.016a2 2 0 0 1 .063-.112c.04-.068.099-.16.177-.268.154-.215.39-.495.715-.775.661-.566 1.689-1.118 3.145-1.118m-4-4a1 1 0 1 1 0 2 1 1 0 0 1 0-2m8 0a1 1 0 1 1 0 2 1 1 0 0 1 0-2"/></g><defs><clipPath id="a"><path fill="currentColor" d="M0 0h20v20H0z"/></clipPath></defs></svg>
